X: 12334
T: Falco
R: polka
M: 2/4
K: Gdorian
GG d>e|fd c>B|AB cd|ec dB/A/|
GG d>e|fd c>B|cd c/d/c/B/|A3 G/F/|
GG d>e|fd c>A|cd ec|BG Bc|
GG d>e|fd c>d|ec BA|B2 BG||
|:f/d/g/e/ cf|d/e/d/g/ e/f/d/c/|d/g/e/f/ dg|e/f/e/d/ c2|
d/g/e/f/ dg|f/e/d/c/ d/e/f/g/|a/g/f/e/ d/e/f/e/|1 f/e/d/c/ d>e:|2 f/e/d/c/ d2||

